X:1
T:An dro : A
E:12
Z:Roger Ngaret (94-95)
R:
C:Trad.
A:Bretagne
S:
M:2/4
L:1/16
K:Am
Q:1/4=0
"Am"A2e2 e2de | "F"f2e2 "G"d2Bc | d2B2 "Am"e2dc |1\
"F"BcAB "Am"c2B2 :|2 "F"BABc "Am"A4 |:\
A2A2 "G"B2cB | "F"A2A2 "Em"B2Bc | "G"d2B2 "Am"e2dc |1\
"F"BcAB "Am"c2B2 :|2 "F"BABc "Am"A4 |]
